!!!COM: Haydn, Franz Joseph
!!!OPR: String Quartet in C Major
!!!ONM: Opus 64, No. 1
!!!OTL: Finale
!!!OMV: 4
!!!SCT: H III:65
!!!SCA: Thematisch-bibliographisches Werkevererzeichnis (A. van Hoboken)
!!!YOR: Dover Edition; reprint of Eulenburg Edition
!!!EED: Walter Hewlett
!!!ENC: Walter Hewlett
!!!CDT: 1732/3/31/-1809/5/31/
!!!OCY: Österreich
!!!YEC: Copyright (c) 1994, 2000 Center for Computer Assisted Research in the Humanities
!!!YEM: Rights to all derivative editions reserved.
!!!YEM: Refer to licensing agreement for further details.
!!!YEN: United States of America
**kern	**kern	**kern	**kern
*I:Violino I	*I:Violino II	*I:Viola	*I:Violoncello
*>[A,A,B]	*>[A,A,B]	*>[A,A,B]	*>[A,A,B]
*>A	*>A	*>A	*>A
*clefG2	*clefG2	*clefC3	*clefF4
*k[]	*k[]	*k[]	*k[]
*C:	*C:	*C:	*C:
*M6/8	*M6/8	*M6/8	*M6/8
! Presto	! Presto	! Presto	! Presto
*tb16	*tb16	*tb16	*tb16
=0-	=0-	=0-	=0-
8cc'	8e	8c	8r
2ryy	2ryy	2ryy	2ryy
8ryy	8ryy	8ryy	8ryy
=1	=1	=1	=1
8cc'	8e	8c	2.r
8r	8r	8r	.
8cc'	8f	8d	.
8cc'	8g	8e	.
8r	8r	8r	.
16cc'	16a	16f	.
16cc'	16a	16f	.
=2	=2	=2	=2
8cc'	8g	8e	4r
8b'	8f	8d	.
8a'	8e	8c	8r
8g'	8d	8B	4r
8r	8r	8r	.
8f'	8d	8B	8GG
=3	=3	=3	=3
(4f	4d	4B	4GG
8e)	8c	8c	8AA
(8d	4.A	8A	4.FF
8f	.	8D	.
8a)	.	8F	.
=4	=4	=4	=4
(4.c	8G	4.E	[4.GG
.	8r	.	.
.	8r	.	.
8B)	4r	8D	8GG]
8r	.	8r	8r
8cc'	8e	8c	8r
=5	=5	=5	=5
8cc'	8e	8c	2.r
8r	8r	8r	.
8cc'	8f	8d	.
8cc'	8g	8e	.
8r	8r	8r	.
16cc'	16a	16f	.
16cc'	16a	16f	.
=6	=6	=6	=6
8cc'	8g	8e	4r
8b'	8f	8d	.
8a'	8e	8c	8r
8g'	8d	8B	4r
8r	8r	8r	.
8f'	8d	8B	8GG
=7	=7	=7	=7
(4f	4d	4B	4GG
8e)	8c	8c	8AA
(8d	4.c	8A	4.FF
8f	.	8D	.
8a)	.	8F	.
=8	=8	=8	=8
(4c	4c	4E	4.GG
16e	8B	8F	.
16d)	.	.	.
8c	8c	8E	8CC
8r	8e	8e	8C
(16ff#	8e	8e	8C
16gg)	.	.	.
=9	=9	=9	=9
(16aa	2.f 2.G	2.d 2.B	8CC
16gg	.	.	.
16ffn)	.	.	8C
16ee'	.	.	.
16dd'	.	.	8CC
16cc'	.	.	.
(16b	.	.	8C
16a	.	.	.
16g)	.	.	8CC
16f'	.	.	.
16e'	.	.	8CC
16d'	.	.	.
=10	=10	=10	=10
8c'	8e 8G	8e 8c	8CC
8e'	8r	8r	8C
8g'	8e 8G	8c	8CC
8cc'	8e 8G	8c	8C
8ee'	8r	8r	8CC
(16ff#	8e 8G	8e	8CC
16gg)	.	.	.
=11	=11	=11	=11
(16aa	2.f 2.G	2.d 2.B	8CC
16gg	.	.	.
16ffn)	.	.	8C
16ee'	.	.	.
16dd'	.	.	8CC
16cc'	.	.	.
(16b	.	.	8C
16a	.	.	.
16g)	.	.	8CC
16f'	.	.	.
16e'	.	.	8CC
16d'	.	.	.
=12	=12	=12	=12
8c'	8e 8G	8e 8c	8CC
8e'	8r	8r	8C
8g'	8e 8G	8c	8CC
8cc'	8e 8G	8c	8C
8ee'	8r	8r	8CC
(16gg#	8e	8r	8CC
16aa)	.	.	.
=13	=13	=13	=13
(16bb	4.a 4.e	4.e	8CC
16aa	.	.	.
16ccc)	.	.	8C
16bb'	.	.	.
16aa'	.	.	8CC
16ggn'	.	.	.
(16ff#	4.a 4.d	4.f#	8C
16ee	.	.	.
16dd)	.	.	8CC
16cc'	.	.	.
16b'	.	.	8C
16a'	.	.	.
=14	=14	=14	=14
8g'	4b 4g	4g	4BB
8b'	.	.	.
8dd'	8r	8r	8r
8gg'	4r	4r	4r
8bb'	.	.	.
8ddd'	16a	16f#	8r
.	16b	16g	.
=15	=15	=15	=15
8ddd'	16cc	16a	4r
.	16b	16g	.
8r	16dd	16b	.
.	16cc	16a	.
8ddd'	16b	16g	8r
.	16a	16f#	.
8ddd'	16g	16e	4r
.	16f#	16d	.
8r	16e	16c	.
.	16d	16B	.
16ddd'	16c	16A	8GG
16ddd'	16B	16G	.
=16	=16	=16	=16
(8ddd	4.g	4.e	16E
.	.	.	16F#
8ccc)	.	.	16G
.	.	.	16A
8ccc'	.	.	16B
.	.	.	16c
(8ccc	4.f#	8d	8D
8aa#	.	8r	8c#
8bb)	.	8r	8d
=17	=17	=17	=17
(8bb	4.e	4.c	16C
.	.	.	16D
8aan)	.	.	16E
.	.	.	16F#
8aa'	.	.	16G
.	.	.	16A
(8aa	4d	8B	8BB
8ff#	.	8r	8A#
8gg)	16dd	8r	8B
.	16b	.	.
=18	=18	=18	=18
(16gg	[4.a	8e	[4.c
16ff#)	.	.	.
(16aa	.	8e	.
16gg)	.	.	.
(16bb	.	8e	.
16aa)	.	.	.
8gg'	8a]	16e	8c]
.	.	16d#	.
8gg'	8a	16f#	8c
.	.	16e	.
8gg'	8a	16g	8c
.	.	16f#	.
=19	=19	=19	=19
(16gg	[4.a	8e	[4.c#
16ff#)	.	.	.
(16aa	.	8e	.
16gg)	.	.	.
(16bb	.	8e	.
16aa)	.	.	.
8gg'	8a]	16e	8c#]
.	.	16d#	.
8gg'	8a	16f#	8c#
.	.	16e	.
8gg'	8a	16g	8c#
.	.	16f#	.
=20	=20	=20	=20
(16gg	[4.b-	8e	[4.c#
16ff#)	.	.	.
(16aa	.	8e	.
16gg)	.	.	.
(16bb-	.	8e	.
16aa)	.	.	.
8gg'	8b-]	16e	8c#]
.	.	16d#	.
8gg'	8b-	16f#	8c#
.	.	16e	.
8gg'	8b-	16g	8c#
.	.	16e	.
=21	=21	=21	=21
8ff#'	16a	16f#	4.d
.	16b	16g	.
8ff#'	16cc	16a	.
.	16b	16g#	.
8ff#'	16cc	16a	.
.	16b	16g#	.
8ff#'	8cc	8a	16d
.	.	.	16e-
8ff#'	8cc	8a	16d
.	.	.	16e-
8ff#'	8cc	8a	16d
.	.	.	16e-
=22	=22	=22	=22
8ff#	8cc	8a	8d
8r	8r	8r	8r
8r	8r	8r	8r
4r	4r	4r	4r
(16ddd	8d	8B	8GG
16ccc)	.	.	.
=23	=23	=23	=23
(16bbn	8d	8B	8GG
16aa	.	.	.
16gg)	8r	8r	8r
16ff#'	.	.	.
16een'	8d	8B	8GG
16dd'	.	.	.
(16cc	8d	8B	8GG
16b	.	.	.
16a)	8r	8r	8r
16g'	.	.	.
16f#'	16d	16B	16GG
16e'	16d	16B	16GG
=24	=24	=24	=24
8d'	8d	16c	16AA
.	.	16d	16BB
8f#'	8r	16c	16AA
.	.	16B	16GG
8a'	8d	16A	16FF#
.	.	16G	16EE
8cc'	16d	8F#	8DD
.	16f#	.	.
8r	16a	8r	8r
.	16b	.	.
(16ccc	16a	8d	8D
16bb)	16g	.	.
=25	=25	=25	=25
(16aa	8f#	8d	8D
16gg	.	.	.
16ff#)	8r	8r	8r
16ee'	.	.	.
16dd'	8f# 8A	8c	8D
16cc'	.	.	.
(16b	8f# 8A	8c	8D
16a	.	.	.
16g)	8r	8r	8r
16f#'	.	.	.
16e'	16f# 16A	16c	16D
16d'	16f# 16A	16A	16D
=26	=26	=26	=26
(8c	8g 8G	4G	4E
8B)	8r	.	.
8f#'	8r	8r	8r
4g	4r	4r	4r
16ff#'	8r	8r	8r
16gg'	.	.	.
=27	=27	=27	=27
(16aa	8dd	8b	2.r
16gg)	.	.	.
(16bb	8dd	8b	.
16gg)	.	.	.
16dd#'	8r	8r	.
16ee'	.	.	.
(16ff#	8b	8g	.
16ee)	.	.	.
(16gg	8b	8g	.
16ee)	.	.	.
16b'	8r	8r	.
16cc'	.	.	.
=28	=28	=28	=28
(16ddn	8g	8e	4r
16cc)	.	.	.
(16ee	8g	8e	.
16cc)	.	.	.
16g#'	8r	8r	8r
16a'	.	.	.
(16cc	4r	4r	8G#
16b)	.	.	.
(16dd	.	.	8A
16cc)	.	.	.
(16ee	8r	8r	8B
16dd)	.	.	.
=29	=29	=29	=29
(16ffn	4r	4r	8c
16ee	.	.	.
16dd	.	.	8r
16cc	.	.	.
16b	8r	8r	8r
16a)	.	.	.
(16ff	4A	8E	4C
16ee	.	.	.
16dd	.	8G#	.
16cc	.	.	.
16b	8r	8A	8r
16a)	.	.	.
=30	=30	=30	=30
(4g	4d	8B	4.D
.	.	8G	.
16b	8c	8F#	.
16a)	.	.	.
8g	8B	8G	8GG
8r	8r	8r	8r
8d'	8r	8r	8r
=31	=31	=31	=31
! (32eP/LLL	!	!	!
! 32dP/	!	!	!
! 32c#P/JJJ	!	!	!
8d'	2.r	8r	4BB
8g'	.	8B	.
8b'	.	8G	8r
! (32f#P/LLL	!	!	!
! 32eP/	!	!	!
! 32d#P/JJJ	!	!	!
8e	.	8r	4C
8a'	.	8c	.
8cc'	.	8A	8r
=32	=32	=32	=32
! (32gP/LLL	!	!	!
! 32f#P/	!	!	!
! 32eP/JJJ	!	!	!
8f#	4r	8r	4D
8a'	.	8f#	.
8dd'	8r	8cc	8r
(16ee	4r	8b	4GG
16dd)	.	.	.
(16cc	.	8r	.
16b)	.	.	.
(16a	8d	8r	8r
16g)	.	.	.
=33	=33	=33	=33
! (32aP/LLL	!	!	!
! 32gP/	!	!	!
! 32f#P/JJJ	!	!	!
8g	8e	2.r	4C
8gg'	8ee	.	.
8gg'	8ee	.	8r
(16aa	8ee	.	4r
16gg)	.	.	.
(16ff#	16dd	.	.
16ee	16cc	.	.
16dd	16b	.	8r
16cc)	16a	.	.
=34	=34	=34	=34
(8.b	8.g	8r	8D
.	.	8d	8D
16cck)	16ak	.	.
8a'	8f#	8c	8D
8g'	8g	8B	8GG
8r	8r	8b	8G
8r	8d	8r	8r
=35	=35	=35	=35
8r	8d	8r	4BB
8ddd'	8g	8B	.
8ddd'	8b	8G	8r
(8ddd	8e	8r	4C
8ccc)	8a	8c	.
8ccc'	8cc	8A	8r
=36	=36	=36	=36
(16ddd	8f#	8r	4D
16ccc)	.	.	.
(16bb	8a	8f#	.
16aa	.	.	.
16gg	8dd	8cc	8r
16ff#)	.	.	.
8gg'	8dd	8b	4GG
8r	16cc	8r	.
.	16b	.	.
8g'	16a	8r	8r
.	16g	.	.
=37	=37	=37	=37
! (32aP/LLL	!	!	!
! 32gP/	!	!	!
! 32f#P/JJJ	!	!	!
8g	8e	2.r	4C
8gg'	8ee	.	.
8gg'	8ee	.	8r
(16aa	8ee	.	4c
16gg)	.	.	.
(16ff#	16dd	.	.
16ee	16cc	.	.
16dd	16b	.	8r
16cc)	16a	.	.
=38	=38	=38	=38
(8.b	8.g	8r	4d
.	.	8d	.
16cck)	16ak	.	.
8a'	8f#	8c	8D
8g'	8g	8B	8G
8r	8r	8r	8GG
8gg'	8b	8g	8r
=39	=39	=39	=39
8gg'	8cc	8a	8r
8r	8r	8r	8GG
8gg'	8cc#	8a#	8r
8gg'	8dd	8b	8r
8r	8r	8r	8GG
16gg'	16ee	8cc#	8r
16gg'	16ee	.	.
=40	=40	=40	=40
8gg'	8ff	8dd	16GG
.	.	.	16BB
8gg'	8ff	8dd	16D
.	.	.	16C
8gg'	8ff	8dd	16BB
.	.	.	16AA
8gg'	8ff	8dd	8GG
8r	8r	8r	8r
8gg'	8ff 8dd	8b	8r
=41	=41	=41	=41
(16gg	8ff 8dd	8b	2.r
16bb	.	.	.
16ddd)	8ff 8dd	8b	.
16ccc'	.	.	.
16bb'	8ff 8dd	8b	.
16aa'	.	.	.
8gg'	8ff 8dd	8b	.
8r	8r	8r	.
8r	8r	8r	.
=42	=42	=42	=42
2.r	2.r	2.r	4r
.	.	.	8r
.	.	.	4r
.	.	.	8AA-
=43	=43	=43	=43
2.r	2.r	4r	8AA-
.	.	.	8r
.	.	8E-	8AA-
.	.	8E-	8AA-
.	.	8r	8r
.	.	8E-	16AA-
.	.	.	16AA-
=44	=44	=44	=44
2.r	2.r	8E-	8AA-
.	.	8r	8GG
.	.	16E-	8AAn
.	.	16E-	.
.	.	8E-	8BB-
.	.	8D	8r
.	.	8En	16BB-
.	.	.	16BB-
=45	=45	=45	=45
2.r	4r	8F	8BB-
.	.	8r	8AA
.	8r	16F	8BBn
.	.	16F	.
.	4r	8F	8C
.	.	8E	8r
.	8d	8F#	16C
.	.	.	16C
=46	=46	=46	=46
2.r	8d	8G	8C
.	8r	8r	8BB-
.	8d	16c	8AA
.	.	16c	.
.	8d	8c	4GG
.	8r	8B-	.
.	16d	8A	8FF
.	16d	.	.
=47	=47	=47	=47
8r	8d	4G	4EE
8r	8c#	.	.
8a'	8d	8F	8DD
8a'	8e	8E	4CC#
8r	8r	8A	.
8a'	16e	8G	8C#
.	16e	.	.
=48	=48	=48	=48
8a	8e	8G	4D
8r	8d	8F	.
16a'	8c	8e	8r
16a'	.	.	.
(8a	4B	4d	4r
8g#)	.	.	.
8a'	8A	8c	16f
.	.	.	16f
=49	=49	=49	=49
8b'	4.G#	4.B	8f
8r	.	.	8e
16b'	.	.	8d
16b'	.	.	.
(8b	4A	4c	8c
8a)	.	.	8A
8b'	8r	16B	16G
.	.	16A	16F
=50	=50	=50	=50
(8cc	4r	8G	8E
8b)	.	8F	8D
8cc'	16cc	8E	8C
.	16cc	.	.
8dd'	8cc	8D	4GG
8r	8b	8r	.
16dd'	8a	16G	8r
16dd'	.	16A	.
=51	=51	=51	=51
(8dd	2.g	8B	4r
8cc)	.	8A	.
8dd'	.	8B	8r
(8ee	.	8c	4r
8dd)	.	8B	.
8ee'	.	8B-	16C
.	.	.	16C
=52	=52	=52	=52
8ff'	4c	16A	16F
.	.	16B-	16G
8r	.	16c	16A
.	.	16A	16F
8ff'	8r	16B-	16G
.	.	16c	16A
8ff'	4r	16d	16B-
.	.	16c	16A
8r	.	16d	16B-
.	.	16B-	16G
16ff'	8gg	16c	16A
16ff'	.	16d	16Bn
=53	=53	=53	=53
8ff'	8gg	4G	16c
.	.	.	16B
8ee'	8r	.	16c
.	.	.	16C
8dd'	8gg	8r	16c
.	.	.	16d
8cc'	8gg	8r	16e
.	.	.	16d
8r	8r	8c	16e
.	.	.	16d
8aa'	16gg	8e	16c#
.	16gg	.	16A
=54	=54	=54	=54
8aa'	8gg	8d	16d
.	.	.	16c#
8r	8ff	16r	16d
.	.	16f	16D
16aa'	8ee	16g	16E
16aa'	.	16a	16F
8aa'	8dd	16b-	16G
.	.	16a	16F#
8gg'	8r	16b-	16G
.	.	16b-	16GG
8ff'	16bb-	16cc	16AA
.	16bb-	16dd	16BB-
=55	=55	=55	=55
8ee'	8bb-	8g	16C
.	.	.	16BB
8r	8aa	8a	16C
.	.	.	16CC
16ccc'	8gg	8b-	16E
16ccc'	.	.	16C
8ccc'	8aa	4a	16F
.	.	.	16E
8aa'	8ff	.	16F
.	.	.	16FF
(16gg	16ee	8bn	16GG
16ff)	16dd	.	16G
=56	=56	=56	=56
8ee'	8ee	8cc	8C
8gg'	16d#	8r	8r
.	16e	.	.
8gg'	16g	8e	8c
.	16e	.	.
8r	8r	8e	8c
8gg'	16d#	8r	8r
.	16e	.	.
8gg'	16g	16e	16c
.	16e	16e	16c
=57	=57	=57	=57
8r	2.r	8e	8c
16gg'	.	8d	8B
16gg'	.	.	.
8gg'	.	8c	8A
8gg'	.	8B	8G
8ff'	.	8r	8r
8ee'	.	8f	8d
=58	=58	=58	=58
8dd'	8r	8f	8d
8aa'	16e	8r	8r
.	16f	.	.
8aa'	16a	8f	8d
.	16f	.	.
8r	8r	8f	8d
8aa'	16e	8r	8r
.	16f	.	.
8aa'	16a	16f	16d
.	16f	16f	16d
=59	=59	=59	=59
8r	4r	8f	8d
16aa'	.	8e	8c
16aa'	.	.	.
8aa'	8r	8d	8B
8aa'	4r	8c	8A
8gg'	.	8r	8r
8ff'	8cc	8a	8r
=60	=60	=60	=60
8ee'	8cc	8a	8r
8r	8r	8r	8F
8ee'	8cc	8a	8F
8ee'	8cc	8a	8r
8r	8r	8r	8F
16ee'	16cc	16A	8F
16ee'	16cc	16A	.
=61	=61	=61	=61
8dd#'	8cc	16A	8r
.	.	16G#	.
8dd#'	8b	16A	16F
.	.	16B	16F
8dd#'	8a	16c	8F
.	.	16A	.
8ee'	8g#	4B	4.E
8r	8r	.	.
8ff'	8dd	16A#	.
.	.	16B	.
=62	=62	=62	=62
8ff'	8dd	16A#	[4.E
.	.	16B	.
8r	8r	16d	.
.	.	16B	.
8ff'	8dd	16A#	.
.	.	16B	.
8ff'	8dd	16A#	8E]
.	.	16B	.
8r	8r	16d	8r
.	.	16B	.
(16ee	8r	8r	8r
16ff)	.	.	.
=63	=63	=63	=63
(16ee	8dd	8b 8g#	2.r
16ff)	.	.	.
(16bb	8r	8r	.
16ff	.	.	.
16ee	8dd	8b 8g#	.
16ff)	.	.	.
(16ee	8dd	8b 8g#	.
16ff	.	.	.
16bb	8r	8r	.
16ff)	.	.	.
8ff'	8dd	16A#	.
.	.	16B	.
=64	=64	=64	=64
8ff'	8dd	16A#	[4.E
.	.	16B	.
8r	8r	16d	.
.	.	16B	.
8ff'	8dd	16A#	.
.	.	16B	.
8ff'	8dd	16A#	8E]
.	.	16B	.
8r	8r	16d	8r
.	.	16B	.
(16dd#	8r	8r	8r
16ee)	.	.	.
=65	=65	=65	=65
(16dd#	8dd	8bn 8g#	2.r
16ee)	.	.	.
(16dddn	8r	8r	.
16ee	.	.	.
16dd#	8dd	8b 8g#	.
16ee)	.	.	.
(16dd#	8dd	8b 8g#	.
16ee)	.	.	.
(16dddn	8r	8r	.
16ee)	.	.	.
16gg#'	16g#	8r	.
16aa'	16a	.	.
=66	=66	=66	=66
(16gg#	16g#	4r	4r
16aa)	16a	.	.
(16ccc	16cc	.	.
16aa)	16a	.	.
16ee'	16e	8r	8r
16ff'	16f	.	.
(16ee	16e	4r	4r
16ff)	16f	.	.
(16aa	16a	.	.
16ff)	16f	.	.
16cc#'	16cc#	16c#	16c#
16dd'	16dd	16d	16d
=67	=67	=67	=67
(16cc#	16cc#	16c#	16c#
16dd)	16dd	16d	16d
(16ff	16ff	16f	16f
16dd)	16dd	16d	16d
16a#'	16a#	16A#	16A#
16b'	16b	16B	16B
(16a#	16a#	16A#	16A#
16b)	16b	16B	16B
(16dd	16dd	16d	16d
16b)	16b	16B	16B
16g#'	16g#	16G#	16G#
16an'	16an	16An	16An
=68	=68	=68	=68
(16g#	16g#	16G#	16G#
16a)	16a	16A	16A
(16cc	16cc	16c	16c
16a)	16a	16A	16A
16e'	16e	16e	16E
16c'	16c	16c	16C
16f'	16f	16f	16F
16d'	16d	16d	16D
16e'	16e	16e	16E
16c'	16c	16c	16C
16d'	16d	16d	16D
16B'	16B	16B	16BB
=69	=69	=69	=69
(2.A	2.A	2.A	2.AA
=70	=70	=70	=70
8B-')	8G	8C	8EE
8r	8r	8r	8r
8B-'	8G	8C	8EE
8B-'	8G	8C	8EE
8r	8r	8r	8r
16B-'	16G	16C	16EE
16B-'	16G	16C	16EE
=71	=71	=71	=71
(8B-	8G	4C	4FF
8A	8A	.	.
8c#)	8B-	8G	8EE
(8d	8A	8A	8FF
8e	8c#	8G	8EE
8f)	8d	8F	8DD
=72	=72	=72	=72
(4.e	4.c	[4.G	[4.GG
8d)	8B	8G]	8GG]
8r	8r	8r	8r
8ccn'	8e	8c	8r
=73	=73	=73	=73
8cc'	8e	8c	2.r
8r	8r	8r	.
8cc'	8f	8d	.
8cc'	8g	8e	.
8r	8r	8r	.
16cc'	16a	16f	.
16cc'	16a	16f	.
=74	=74	=74	=74
8cc'	8g	8e	4r
8b'	8f	8d	.
8a'	8e	8c	8r
8g'	8d	8B	4r
8r	8r	8r	.
8f'	8d	8B	8GG
=75	=75	=75	=75
(4f	4d	4B	4GG
8e)	8c	8c	8AA
(8d	4.A	8A	4.FF
8f	.	8D	.
8a)	.	8F	.
=76	=76	=76	=76
(4.c	8G	4.E	[4.GG
.	8r	.	.
.	8r	.	.
8B)	4r	8D	8GG]
8r	.	8r	8r
(16b	8e	8c	8r
16cc)	.	.	.
=77	=77	=77	=77
(16b	8e	8c	2.r
16cc)	.	.	.
(16ee	8r	8r	.
16cc	.	.	.
16b	8f	8d	.
16cc)	.	.	.
(16b	8g	8e	.
16cc)	.	.	.
(16ee	8r	8r	.
16cc	.	.	.
16b	16a	16f	.
16cc)	16a	16f	.
=78	=78	=78	=78
(16dd	8g	8e	4r
16cc)	.	.	.
(16cc	8f	8d	.
16b)	.	.	.
(16b	8e	8c	8r
16a)	.	.	.
(16a	8d	8B	4r
16g)	.	.	.
(16f#	8r	8r	.
16g)	.	.	.
(16e	8d	8B	8GG
16fn)	.	.	.
=79	=79	=79	=79
(16e	4d	4B	4GG
16f)	.	.	.
(16a	.	.	.
16f)	.	.	.
(16d#	8c	8c	8AA
16e)	.	.	.
(16c#	4.c	8A	4.FF
16dn)	.	.	.
(16e	.	8D	.
16f)	.	.	.
(16g	.	8F	.
16a)	.	.	.
=80	=80	=80	=80
(4cn	4c	4E	4.GG
16e	8B	8F	.
16d)	.	.	.
8c	8c	8E	8CC
8r	8e	8e	8C
(16ff#	8e	8e	8C
16gg)	.	.	.
=81	=81	=81	=81
(16aa	2.f 2.G	2.d 2.B	8CC
16gg	.	.	.
16ffn)	.	.	8C
16ee'	.	.	.
16dd'	.	.	8CC
16cc'	.	.	.
(16b	.	.	8C
16a	.	.	.
16g)	.	.	8CC
16f'	.	.	.
16e'	.	.	8CC
16d'	.	.	.
=82	=82	=82	=82
8c'	8e 8G	8e 8c	8CC
8e'	8r	8r	8C
8g'	8e 8G	8c	8CC
8cc'	8e 8G	8c	8C
8ee'	8r	8r	8CC
(16ff#	8e 8G	8e	8CC
16gg)	.	.	.
=83	=83	=83	=83
(16aa	2.f 2.G	2.d 2.B	8CC
16gg	.	.	.
16ffn)	.	.	8C
16ee'	.	.	.
16dd'	.	.	8CC
16cc'	.	.	.
(16b	.	.	8C
16a	.	.	.
16g)	.	.	8CC
16f'	.	.	.
16e'	.	.	8CC
16d'	.	.	.
=84	=84	=84	=84
8c'	8e 8G	8e 8c	8CC
8e'	8r	8r	8C
8g'	8e 8G	8e	8CC
8cc'	8e 8G	8e	8C
8ee'	8r	8r	8CC
(16gg	8e 8B-	8e	8CC
16aa)	.	.	.
=85	=85	=85	=85
(16bb-	2.en 2.B-	2.g	8CC
16aa	.	.	.
16gg)	.	.	8C
16ff'	.	.	.
16ee'	.	.	8CC
16dd'	.	.	.
(16cc	.	.	8C
16b-	.	.	.
16a)	.	.	8CC
16g'	.	.	.
16f'	.	.	8CC
16e'	.	.	.
=86	=86	=86	=86
8f'	8f 8A	8a	4FF
8a'	8r	8r	.
8cc'	8r	8r	8r
8ff'	4r	4r	4r
8aa'	.	.	.
8ccc'	16g	16e	8r
.	16a	16f	.
=87	=87	=87	=87
8ccc'	16b-	16g	4r
.	16a	16f	.
8r	16cc	16a	.
.	16b-	16g	.
8ccc'	16a	16f	8r
.	16g	16e	.
8ccc'	16f	16d	4r
.	16e	16c	.
8r	16d	16B-	.
.	16c	16A	.
16ccc'	16B-	16G	8FF
16ccc'	16A	16F	.
=88	=88	=88	=88
(8ccc	4.f	4.d	16D
.	.	.	16E
8bb-)	.	.	16F
.	.	.	16G
8bb-'	.	.	16A
.	.	.	16B-
(8bb-	4.e	8c	8C
8gg#	.	8r	8Bn
8aa)	.	8r	8c
=89	=89	=89	=89
(8aa	4.d	4.B-	16BB-
.	.	.	16C
8ggn)	.	.	16D
.	.	.	16E
8gg'	.	.	16F
.	.	.	16G
(8gg	8c	8A	8AA
8ee	8r	8r	8G#
8ff)	8r	8r	8A
=90	=90	=90	=90
(16ff	4.d 4.B	4f	[2.GG
16gg	.	.	.
16aa)	.	.	.
16bbn'	.	.	.
16ccc'	.	8d	.
16ddd'	.	.	.
(16ee	4.e 4.c	4.e	.
16ff	.	.	.
16gg)	.	.	.
16aa'	.	.	.
16bb'	.	.	.
16ccc'	.	.	.
=91	=91	=91	=91
(16a	4f# 4A	4.c	4.GG_
16b	.	.	.
16cc)	.	.	.
16dd'	.	.	.
16ee'	8a	.	.
16ff#'	.	.	.
8gg	8g	8B	8GG]
8r	8r	8r	8r
(16gg	8e	8G	8C
16ffn)	.	.	.
=92	=92	=92	=92
(16ee	8e	8G	8C
16dd	.	.	.
16cc)	8r	8r	8r
16b'	.	.	.
16a'	8e	8G	8C
16g'	.	.	.
(16f	8e	8G	8C
16e	.	.	.
16d)	8r	8r	8r
16c'	.	.	.
16B'	16e	16G	16C
16A'	16e	16G	16C
=93	=93	=93	=93
8G'	16f	8G	16D
.	16g	.	16E
8B'	16f	8r	16D
.	16e	.	16C
8d'	16d	8G	16BB
.	16c	.	16AA
8f'	8B	16G	8GG
.	.	16B	.
8r	8r	16d	8r
.	.	16e	.
(16G	16B	16d	8GG
16A)	16c	16c	.
=94	=94	=94	=94
(16B	8d	8B	8GG
16c	.	.	.
16d)	8r	8r	8r
16e'	.	.	.
16f'	8d	8B	8GG
16g'	.	.	.
(16f	8d	8B	8GG
16b	.	.	.
16dd)	8r	8r	8r
16ff'	.	.	.
16aa'	16B	16d	16GG
16ff'	16B	16d	16GG
=95	=95	=95	=95
(8ff	4c	4c	4AA
8ee)	.	.	.
8bb'	8r	8r	8r
8ccc'	4r	4r	4A
8r	.	.	.
16bb'	8r	8r	8r
16ccc'	.	.	.
=96	=96	=96	=96
(16bb	8gg	8ee	2.r
16ccc	.	.	.
16eee	8gg	8ee	.
16ccc)	.	.	.
16gg#'	8r	8r	.
16aa'	.	.	.
(16gg#	8ee	8cc	.
16aa	.	.	.
16ccc	8ee	8cc	.
16aa)	.	.	.
16ee'	8r	8r	.
16ff'	.	.	.
=97	=97	=97	=97
(16ee	8cc	8a	2.r
16ff	.	.	.
16aa	8cc	8a	.
16ff)	.	.	.
16cc#'	8r	8r	.
16dd'	.	.	.
(16ff	4r	8c#	.
16ee)	.	.	.
(16ggn	.	8d	.
16ff)	.	.	.
(16aa	8r	8e	.
16gg)	.	.	.
=98	=98	=98	=98
(16bb-	4r	8f	4r
16aa)	.	.	.
(16gg	.	8r	.
16ff)	.	.	.
(16ee	8r	8f	8FF
16dd)	.	.	.
(8ccn	4r	8e	4GG
8bn)	.	8d	.
8aa'	8ff	16c#	8GG
.	.	16d	.
=99	=99	=99	=99
8aa'	8ff	16c#	[2.GG
.	.	16d	.
8r	8r	16f	.
.	.	16d	.
8aa'	8ff	16c#	.
.	.	16d	.
8aa'	8ff	16c#	.
.	.	16d	.
8r	8r	16f	.
.	.	16d	.
16aa'	16ff	16c#	.
16aa'	16ff	16d	.
=100	=100	=100	=100
(8aa	8ff	16d	4.GG]
.	.	16e	.
8gg	8ee	16f	.
.	.	16g	.
8ff)	8dd	16a	.
.	.	16b	.
(8ee	8cc	8cc	8AA
8dd	8a	8r	8FF
8ff)	16a	8d	8FF
.	16f	.	.
=101	=101	=101	=101
(4cc	4e	4c	4.GG
16ee	8f	8B	.
16dd)	.	.	.
8cc'	8e	8c	8C
8r	8r	8r	8r
8a'	8f	16C#	8GG
.	.	16D	.
=102	=102	=102	=102
8a'	8f	16C#	[2.GG
.	.	16D	.
8r	8r	16F	.
.	.	16D	.
8a'	8f	16C#	.
.	.	16D	.
8a'	8f	16C#	.
.	.	16D	.
8r	8r	16F	.
.	.	16D	.
16a'	16f	16C#	.
16a'	16f	16D	.
=103	=103	=103	=103
(8a	8f	16D	4.GG]
.	.	16E	.
8g	8e	16F	.
.	.	16G	.
8f)	8d	16A	.
.	.	16B	.
(8e	8c	8c	8AA
8d	8d	8r	8FF
8f)	8d	8A	8FF
=104	=104	=104	=104
(4c	4c	4E	4.GG
16e	8B	8F	.
16d)	.	.	.
8c'	8c	8E	8C
8r	8r	8r	8r
8cc'	8e	8B-	8C
=105	=105	=105	=105
8cc'	8e	8B-	8C
8r	8r	8r	8r
8cc'	8f	8A	8C
8cc'	8f	8A	8C
8r	8r	8r	8r
16cc'	16a	16F	16C
16cc'	16a	16F	16C
=106	=106	=106	=106
8cc'	8a	16F	8C
.	.	16E	.
8b'	8g	16F	8C
.	.	16G	.
8a'	8f	16A	8C
.	.	16B	.
8g'	8e	8c	8C
8r	8r	8r	8r
8e'	8B-	8G	8CC
=107	=107	=107	=107
8e'	8B-	8G	8CC
8r	8r	8r	8r
8f'	8A	8F	8CC
8f'	8A	8F	8CC
8r	8r	8r	8r
16f'	16Bn	16D	16CC
16f'	16B	16D	16CC
=108	=108	=108	=108
8f'	4.B	16D	8CC
.	.	16C#	.
8e'	.	16D	8CC
.	.	16E	.
8d'	.	16F	8CC
.	.	16G	.
8c'	8c	8E	8CC
8r	8r	8r	8r
8r	8r	8r	8r
=109	=109	=109	=109
(16d	4.B	4.F	[4.CC
16c#	.	.	.
16d)	.	.	.
16f'	.	.	.
16e'	.	.	.
16d'	.	.	.
8cn'	8c	8E	8CC]
8r	8r	8r	8r
8r	8r	8r	8r
=110	=110	=110	=110
(4.B	4.d	16F	[4.CC
.	.	16E	.
.	.	16F	.
.	.	16A	.
.	.	16G	.
.	.	16F	.
8c)	8e	8E	8CC]
8r	8r	8r	8r
==|!	==|!	==|!	==|!
*-	*-	*-	*-
!!!RWG: Appoggiaturas of spine 'Violino I' need manual editing in measures: 31, 31, 32, 33, 37
!!!RWG: Key is interpreted using the Humdrum key tool.
!!!GTL: 6 Quartetti ("Tost III")
!!!AFT: stage2
!!!END: 1994/11/13
!!format changes:
!!content changes:
!!public access: complete
!!!KEY: 2799591906
!!!EMD: Converted from MuseData to Humdrum Dec 16, 2000, by Andreas Kornstaedt using muse2kern.
